X: 28709
T: My Darling Asleep
R: jig
M: 6/8
K: Dmajor
ag|:fed cAc|BGB A2G|FAA def|gfg eag|
f2d cAc|BGB A2G|FAA def|1 gec d2e:|2 gec d2G||
|:FAA dAG|FAA BAG|F2A def|gfg eag|
f2d cAc|BGB A2G|FAA def|1 gec d2G:|2 gec d2e||

